X: 617
T: Liumei duohuen
L: 1/8
M: 2/4
K: F
G> G F G [I:setbarnb 1]| 
c2f2 | 
G G F E | 
C3z | 
F> G A A | 
G G F E | 
C/ A,/ C E/ G/ E | 
C4 |]

@@@ Tune index: 9491
